tipitek/img/icon-wallet.svg

<svg width="16" height="17" viewBox="0 0 16 17" fill="none" xmlns="http://www.w3.org/2000/svg">
<path fill-rule="evenodd" clip-rule="evenodd" d="M11.0943 2.5C13.299 2.5 15.0923 4.29333 15.0923 6.49867V11.2833C15.0923 13.488 13.299 15.282 11.0943 15.282H5.33167C3.12701 15.282 1.33301 13.488 1.33301 11.2833V6.49867C1.33301 4.29333 3.12701 2.5 5.33167 2.5H11.0943ZM11.0943 3.5H5.33167C3.67834 3.5 2.33301 4.84533 2.33301 6.49867V11.2833C2.33301 12.9367 3.67834 14.282 5.33167 14.282H11.0943C12.7477 14.282 14.0923 12.9367 14.0923 11.2833V11.0967L11.8937 11.0971C10.6291 11.0971 9.59974 10.0684 9.59907 8.8044C9.59907 7.53907 10.6284 6.50973 11.8937 6.50907L14.0923 6.50867V6.49867C14.0923 4.84533 12.7477 3.5 11.0943 3.5ZM14.0923 7.50867L11.8937 7.50907C11.1797 7.50973 10.5991 8.0904 10.5991 8.80373C10.5991 9.5164 11.1804 10.0971 11.8937 10.0971L14.0923 10.0967V7.50867ZM12.1988 8.2624C12.4748 8.2624 12.6988 8.4864 12.6988 8.7624C12.6988 9.0384 12.4748 9.2624 12.1988 9.2624H11.9908C11.7148 9.2624 11.4908 9.0384 11.4908 8.7624C11.4908 8.4864 11.7148 8.2624 11.9908 8.2624H12.1988ZM8.45634 5.5254C8.73234 5.5254 8.95634 5.7494 8.95634 6.0254C8.95634 6.3014 8.73234 6.5254 8.45634 6.5254H4.85701C4.58101 6.5254 4.35701 6.3014 4.35701 6.0254C4.35701 5.7494 4.58101 5.5254 4.85701 5.5254H8.45634Z" fill="#30CBFF"/>
</svg>

<svg width="16" height="17" fill="none" xmlns="http://www.w3.org/2000/svg"><path fill-rule="evenodd" clip-rule="evenodd" d="M11.094 2.5a4.002 4.002 0 0 1 3.998 3.999v4.784a4.003 4.003 0 0 1-3.998 3.999H5.332a4.003 4.003 0 0 1-3.999-3.999V6.5A4.003 4.003 0 0 1 5.332 2.5h5.762zm0 1H5.332a3.002 3.002 0 0 0-2.999 2.999v4.784a3.002 3.002 0 0 0 2.999 2.999h5.762a3.002 3.002 0 0 0 2.998-2.999v-.186h-2.198a2.297 2.297 0 0 1-2.295-2.293 2.298 2.298 0 0 1 2.295-2.295h2.198v-.01A3.002 3.002 0 0 0 11.094 3.5zm2.998 4.009h-2.198c-.714 0-1.295.581-1.295 1.295 0 .712.581 1.293 1.295 1.293h2.198V7.509zm-1.893.753a.5.5 0 0 1 0 1h-.208a.5.5 0 0 1 0-1h.208zM8.456 5.525a.5.5 0 0 1 0 1H4.857a.5.5 0 0 1 0-1h3.6z" fill="#30CBFF"/></svg>
